packages/admin/src/assets/images/logo.svg

<svg viewBox="0 0 155 130" xmlns="http://www.w3.org/2000/svg">
<path d="m6.7093 65.422c0.15752 0.2821 0.26648 0.4853 0.38219 0.6842 5.8275 9.9767 13.316 18.502 22.582 25.396 12.922 9.6153 27.378 15.172 43.543 16.049 4.9022 0.266 9.7833 0.077 14.648-0.559 5.3875-0.704 10.635-1.99 15.747-3.833 11.331-4.0844 21.304-10.333 29.921-18.746 4.586-4.4778 8.652-9.3855 12.121-14.78 0.873-1.3582 1.701-2.7455 2.551-4.1205-0.138-0.2488-0.245-0.4515-0.36-0.6496-3.275-5.6353-7.146-10.825-11.611-15.574-4.843-5.151-10.195-9.6913-16.184-13.461-11.078-6.9741-23.078-11.253-36.176-12.297-3.5859-0.2863-7.1735-0.3332-10.765-0.1406-4.1172 0.2209-8.1925 0.7589-12.221 1.6331-6.4309 1.3953-12.579 3.607-18.461 6.5437-13.562 6.7701-24.401 16.612-32.798 29.187-1.0131 1.5174-1.9384 3.0939-2.9182 4.6657zm66.811 64.412c0.0114-0.209 0.0316-0.418 0.0321-0.627 0.0012-4.916 4e-4 -9.832 0-14.748v-0.705c-5.1388-0.258-10.173-0.971-15.21-2.155-1.0245 4.59-2.0326 9.107-3.0542 13.684-2.0127-0.442-3.99-0.875-6.0433-1.325 1.022-4.684 2.0305-9.31 3.0534-13.998-4.0635-1.283-7.9847-2.807-11.851-4.667-2.3848 3.939-4.7485 7.844-7.1413 11.798-1.7847-1.085-3.5188-2.139-5.3123-3.229 2.3164-3.837 4.6125-7.64 6.9403-11.496-4.9428-2.8731-9.5532-6.1532-13.936-9.9046-2.7121 3.422-5.4031 6.8182-8.1313 10.262-1.6276-1.299-3.2121-2.564-4.8667-3.8843 2.824-3.5677 5.6087-7.086 8.4235-10.641-0.5757-0.6415-1.1344-1.2619-1.6901-1.884-2.4765-2.7729-4.9327-5.564-7.1933-8.518-2.6593-3.4748-5.0471-7.1283-7.1578-10.962-0.38219-0.6237-0.38219-1.1385-0.38219-1.4012 0-0.2204-7.5516e-8 -0.6406 0.38726-1.3396 3.3726-6.0602 7.3428-11.699 11.908-16.917 1.1191-1.2796 2.2902-2.5128 3.4815-3.8152-2.5613-3.2362-5.1374-6.4918-7.7528-9.7969 1.5642-1.3733 3.1952-2.579 4.8414-3.9144 2.4802 3.1167 4.9292 6.2258 7.4238 9.3644 1.5073-1.2082 2.9655-2.4287 4.4787-3.5766 1.5047-1.1419 3.0432-2.2433 4.6066-3.3037 1.579-1.071 3.2074-2.0698 4.8912-3.1501-2.0934-3.4684-4.1919-6.9445-6.3254-10.479 1.7779-1.0815 3.5098-2.1352 5.3135-3.2328 2.18 3.5821 4.3355 7.1249 6.5151 10.706 3.9731-1.9603 8.0307-3.604 12.302-4.9537-1.0689-4.8845-2.134-9.7517-3.2147-14.69 2.028-0.44596 4.0057-0.88094 6.059-1.3324 1.0566 4.8203 2.101 9.5861 3.166 14.444 5.094-1.2095 10.221-1.984 15.442-2.2437 0.0114-0.2568 0.027-0.443 0.027-0.6293 0.0021-5.357 0.0025-10.714 0.0013-16.071-5e-4 -0.16724-0.0207-0.33405-0.0321-0.50087h6.3026c-0.011 0.12501-0.0317 0.25001-0.0317 0.37501-0.0017 5.3989-0.0017 10.798 4e-4 16.197 0 0.1622 0.0258 0.3248 0.0448 0.5436 5.2303 0.1604 10.374 0.8378 15.505 1.9637 1.0347-4.7215 2.0525-9.3673 3.0846-14.077 2.0339 0.44596 4.0129 0.87969 6.0759 1.332-1.054 4.7806-2.094 9.5029-3.145 14.272 4.348 1.2741 8.499 2.9009 12.577 4.8262 2.06-3.3933 4.094-6.7452 6.164-10.157 1.784 1.0853 3.528 2.1457 5.304 3.2269-2.004 3.3202-3.962 6.5644-5.946 9.85 5.044 2.8878 9.69 6.2186 14.106 9.9404 2.303-2.9068 4.557-5.7515 6.842-8.6354 1.648 1.2838 3.293 2.5009 4.86 3.9186-2.364 3.0018-4.701 5.9686-7.127 9.0481 0.283 0.2327 0.578 0.4375 0.828 0.6875 4.759 4.7582 8.877 10.032 12.499 15.692 1.291 2.0191 2.718 3.9761 3.486 6.2912 0.023 0.0739 0.037 0.1254 0.037 0.1888 0 0.0625-0.017 0.1026-0.037 0.1892-0.178 0.5975-0.401 1.1694-0.71 1.7209-1.944 3.4676-4.131 6.7777-6.453 9.9974-2.882 3.9943-6.117 7.6895-9.631 11.14-0.176 0.1719-0.345 0.3514-0.532 0.5431 2.583 3.2691 5.131 6.4922 7.717 9.7652-1.652 1.3194-3.235 2.5854-4.861 3.8844-2.527-3.1745-4.996-6.3157-7.441-9.383-2.349 1.7476-4.58 3.4998-6.908 5.1117-2.343 1.6213-4.783 3.1033-7.215 4.6693 2.14 3.543 4.305 7.128 6.488 10.744-1.811 1.1-3.542 2.152-5.314 3.229-2.296-3.779-4.551-7.489-6.829-11.239-3.956 1.827-7.998 3.322-12.195 4.56 1 4.555 1.987 9.051 2.987 13.606-2.056 0.449-4.034 0.88-6.0678 1.324-0.9852-4.492-1.954-8.91-2.9161-13.297-2.5748 0.411-5.0698 0.882-7.5847 1.192-2.5343 0.312-5.0881 0.465-7.6937 0.692v0.59c-4e-4 4.916-0.0013 9.831 0 14.747 0 0.188 0.0211 0.376 0.0321 0.564h-6.3026z" fill="#fff"/>
<path d="m85.94 61.377c-3.6142 0-6.5442-2.93-6.5442-6.5441 0-3.6142 2.93-6.5442 6.5442-6.5442 3.6146 0 6.5442 2.93 6.5442 6.5442 0 3.6141-2.9296 6.5441-6.5442 6.5441zm-8.4463-23.967c-14.872 0-26.928 12.056-26.928 26.928 0 14.872 12.056 26.928 26.928 26.928 14.872 0 26.929-12.056 26.929-26.928 0-14.872-12.056-26.928-26.929-26.928" fill="#fff"/>
</svg>

<svg width="155" height="130" viewBox="0 0 155 130" fill="none" xmlns="http://www.w3.org/2000/svg">
<path d="M6.7093 65.4223C6.86682 65.7044 6.97578 65.9076 7.09149 66.1065C12.919 76.0832 20.4079 84.6084 29.673 91.5027C42.595 101.118 57.0508 106.675 73.2157 107.552C78.1179 107.818 82.999 107.629 87.8636 106.993C93.2511 106.289 98.4983 105.003 103.611 103.16C114.942 99.0756 124.915 92.8267 133.532 84.4142C138.118 79.9364 142.184 75.0287 145.653 69.6345C146.526 68.2763 147.354 66.889 148.204 65.514C148.066 65.2652 147.959 65.0625 147.844 64.8644C144.569 59.2291 140.698 54.0393 136.233 49.2908C131.39 44.1398 126.038 39.5995 120.049 35.83C108.971 28.8559 96.9708 24.577 83.8728 23.533C80.2869 23.2467 76.6993 23.1998 73.108 23.3924C68.9908 23.6133 64.9155 24.1513 60.8866 25.0255C54.4557 26.4208 48.308 28.6325 42.4252 31.5692C28.8634 38.3393 18.0243 48.1809 9.62748 60.7566C8.61435 62.274 7.68906 63.8505 6.7093 65.4223ZM73.5202 129.834C73.5316 129.625 73.5518 129.416 73.5523 129.207C73.5535 124.291 73.5527 119.375 73.5523 114.459V113.754C68.4135 113.496 63.3796 112.783 58.3422 111.599C57.3177 116.189 56.3096 120.706 55.288 125.283C53.2753 124.841 51.298 124.408 49.2447 123.958C50.2667 119.274 51.2752 114.648 52.2981 109.96C48.2346 108.677 44.3134 107.153 40.4471 105.293C38.0623 109.232 35.6986 113.137 33.3058 117.091C31.5211 116.006 29.787 114.952 27.9935 113.862C30.3099 110.025 32.606 106.222 34.9338 102.366C29.991 99.4929 25.3806 96.2128 20.9979 92.4614C18.2858 95.8834 15.5948 99.2796 12.8666 102.723C11.239 101.424 9.65451 100.159 7.99989 98.8387C10.8239 95.271 13.6086 91.7527 16.4234 88.1973C15.8477 87.5558 15.289 86.9354 14.7333 86.3133C12.2568 83.5404 9.80063 80.7493 7.53999 77.7953C4.88068 74.3205 2.49292 70.667 0.382194 66.8328C-1.00687e-07 66.2091 0 65.6943 0 65.4316C0 65.2112 -7.55156e-08 64.791 0.387262 64.092C3.75986 58.0318 7.73003 52.3927 12.2957 47.1746C13.4148 45.895 14.5859 44.6618 15.7772 43.3594C13.2159 40.1232 10.6398 36.8676 8.02438 33.5625C9.58863 32.1892 11.2196 30.9835 12.8658 29.6481C15.346 32.7648 17.795 35.8739 20.2896 39.0125C21.7969 37.8043 23.2551 36.5838 24.7683 35.4359C26.273 34.294 27.8115 33.1926 29.3749 32.1322C30.9539 31.0612 32.5823 30.0624 34.2661 28.9821C32.1727 25.5137 30.0742 22.0376 27.9407 18.5028C29.7186 17.4213 31.4505 16.3676 33.2542 15.27C35.4342 18.8521 37.5897 22.3949 39.7693 25.9765C43.7424 24.0162 47.8 22.3725 52.0713 21.0228C51.0024 16.1383 49.9373 11.2711 48.8566 6.33303C50.8846 5.88707 52.8623 5.45209 54.9156 5.00063C55.9722 9.82092 57.0166 14.5867 58.0816 19.445C63.1756 18.2355 68.3029 17.461 73.524 17.2013C73.5354 16.9445 73.551 16.7583 73.551 16.572C73.5531 11.215 73.5535 5.85793 73.5523 0.500882C73.5518 0.333645 73.5316 0.16683 73.5202 1.57437e-05H79.8228C79.8118 0.125021 79.7911 0.250026 79.7911 0.37503C79.7894 5.77389 79.7894 11.1727 79.7915 16.572C79.7915 16.7342 79.8173 16.8968 79.8363 17.1156C85.0666 17.276 90.2108 17.9534 95.3415 19.0793C96.3762 14.3578 97.394 9.71196 98.4261 5.00232C100.46 5.44828 102.439 5.88201 104.502 6.33431C103.448 11.1149 102.408 15.8372 101.357 20.6068C105.705 21.8809 109.856 23.5077 113.934 25.433C115.994 22.0397 118.028 18.6878 120.098 15.2764C121.882 16.3617 123.626 17.4221 125.402 18.5033C123.398 21.8235 121.44 25.0677 119.456 28.3533C124.5 31.2411 129.146 34.5719 133.562 38.2937C135.865 35.3869 138.119 32.5422 140.404 29.6583C142.052 30.9421 143.697 32.1592 145.264 33.5769C142.9 36.5787 140.563 39.5455 138.137 42.625C138.42 42.8577 138.715 43.0625 138.965 43.3125C143.724 48.0707 147.842 53.3446 151.464 59.004C152.755 61.0231 154.182 62.9801 154.95 65.2952C154.973 65.3691 154.987 65.4206 154.987 65.484C154.987 65.5465 154.97 65.5866 154.95 65.6732C154.772 66.2707 154.549 66.8426 154.24 67.3941C152.296 70.8617 150.109 74.1718 147.787 77.3915C144.905 81.3858 141.67 85.081 138.156 88.5313C137.98 88.7032 137.811 88.8827 137.624 89.0744C140.207 92.3435 142.755 95.5666 145.341 98.8396C143.689 100.159 142.106 101.425 140.48 102.724C137.953 99.5495 135.484 96.4083 133.039 93.341C130.69 95.0886 128.459 96.8408 126.131 98.4527C123.788 100.074 121.348 101.556 118.916 103.122C121.056 106.665 123.221 110.25 125.404 113.866C123.593 114.966 121.862 116.018 120.09 117.095C117.794 113.316 115.539 109.606 113.261 105.856C109.305 107.683 105.263 109.178 101.066 110.416C102.066 114.971 103.053 119.467 104.053 124.022C101.997 124.471 100.019 124.902 97.9852 125.346C97 120.854 96.0312 116.436 95.0691 112.049C92.4943 112.46 89.9993 112.931 87.4844 113.241C84.9501 113.553 82.3963 113.706 79.7907 113.933V114.523C79.7903 119.439 79.7894 124.354 79.7907 129.27C79.7907 129.458 79.8118 129.646 79.8228 129.834H73.5202Z" fill="white"/>
<path d="M85.9397 61.3767C82.3255 61.3767 79.3955 58.4467 79.3955 54.8326C79.3955 51.2184 82.3255 48.2884 85.9397 48.2884C89.5543 48.2884 92.4839 51.2184 92.4839 54.8326C92.4839 58.4467 89.5543 61.3767 85.9397 61.3767ZM77.4934 37.41C62.6216 37.41 50.5654 49.4658 50.5654 64.338C50.5654 79.2098 62.6216 91.266 77.4934 91.266C92.3656 91.266 104.422 79.2098 104.422 64.338C104.422 49.4658 92.3656 37.41 77.4934 37.41" fill="white"/>
</svg>
